X:8
T:Der Lauterbacher F2 chords
M:3/4
L:1/4
K:Fmaj%%MIDI gchordon
"F"c>c A | F>F C | "C7"G>C C- | C G/2A/2 B/2c/2 | d>d c | B>B G | "F"c3- | c B/2c/2 d/2e/2 | 
f>c c | A A F | "C7"G>C C- | C G/2A/2 B/2c/2 | d>d c | B B E | "F"F/2F/2 F F |1 F z z :| 
|2 F>c d/2e/2 |: ("F"fA) A | (fA) A | "C7"B g>f | (eB) B | (eB) B | "F"c (a>g) |
(fA) A | (fA) A | "C7"B g>f | (eB) B | c B/2c/2 d/2e/2 |1 "F"f>c de :|2 "F"f2 z |] 

